src/assets/images/profileCloseButton.svg

<?xml version="1.0" encoding="UTF-8"?>
<svg xmlns="http://www.w3.org/2000/svg" xmlns:xlink="http://www.w3.org/1999/xlink" width="30pt" height="30pt" viewBox="0 0 30 30" version="1.1">
<g id="surface1">
<path style=" stroke:none;fill-rule:nonzero;fill:rgb(100%,100%,100%);fill-opacity:1;" d="M 29.167969 25.375 C 29.6875 25.894531 29.953125 26.585938 29.953125 27.269531 C 29.953125 27.953125 29.6875 28.648438 29.167969 29.164062 C 28.648438 29.6875 27.953125 29.953125 27.269531 29.953125 C 26.585938 29.953125 25.894531 29.6875 25.375 29.164062 L 14.976562 18.765625 L 4.578125 29.164062 C 4.054688 29.6875 3.367188 29.953125 2.679688 29.953125 C 1.996094 29.953125 1.304688 29.6875 0.789062 29.164062 C 0.265625 28.648438 0 27.953125 0 27.269531 C 0 26.585938 0.265625 25.894531 0.789062 25.375 L 11.183594 14.972656 L 0.789062 4.578125 C 0.265625 4.054688 0 3.367188 0 2.679688 C 0 1.992188 0.265625 1.304688 0.789062 0.785156 C 1.3125 0.265625 1.996094 0 2.6875 0 C 3.371094 0 4.058594 0.265625 4.582031 0.785156 L 14.976562 11.179688 L 25.371094 0.785156 C 25.894531 0.265625 26.578125 0 27.269531 0 C 27.953125 0 28.644531 0.265625 29.164062 0.785156 C 29.6875 1.304688 29.949219 1.996094 29.949219 2.679688 C 29.949219 3.367188 29.6875 4.054688 29.164062 4.578125 L 18.765625 14.972656 Z M 29.167969 25.375 "/>
</g>
</svg>

<svg xmlns="http://www.w3.org/2000/svg" width="40" height="40" viewBox="0 0 30 30"><path style="stroke:none;fill-rule:nonzero;fill:#fff;fill-opacity:1" d="M29.168 25.375a2.677 2.677 0 0 1 0 3.79 2.672 2.672 0 0 1-3.793 0l-10.398-10.4-10.399 10.4a2.68 2.68 0 0 1-1.898.788 2.656 2.656 0 0 1-1.89-.789 2.665 2.665 0 0 1 0-3.789l10.394-10.402L.789 4.578A2.68 2.68 0 0 1 0 2.68C0 1.992.266 1.305.79.785a2.686 2.686 0 0 1 3.792 0L14.977 11.18 25.37.785a2.686 2.686 0 0 1 3.793 0c.523.52.785 1.211.785 1.895 0 .687-.262 1.375-.785 1.898L18.766 14.973zm0 0"/></svg>
